!!!OTL: N6c. Schubert, Quintet, end of mvt. 4, mm. 416-end
!!!OMD: Pi&ugrave; presto
**kern	**dynam	**kern	**dynam	**kern	**dynam	**kern	**dynam	**kern	**dynam
*staff5	*staff5	*staff4	*staff4	*staff3	*staff3	*staff2	*staff2	*staff1	*staff1
*Icello	*Icello	*Icello	*Icello	*Iviola	*Iviola	*Ivioln	*Ivioln	*Ivioln	*Ivioln
*clefF4	*clefF4	*clefF4	*clefF4	*clefC3	*clefC3	*clefG2	*clefG2	*clefG2	*clefG2
*k[]	*k[]	*k[]	*k[]	*k[]	*k[]	*k[]	*k[]	*k[]	*k[]
*C:	*C:	*C:	*C:	*C:	*C:	*C:	*C:	*C:	*C:
*M2/2	*M2/2	*M2/2	*M2/2	*M2/2	*M2/2	*M2/2	*M2/2	*M2/2	*M2/2
*MM280	*MM280	*MM280	*MM280	*MM280	*MM280	*MM280	*MM280	*MM280	*MM280
=416-	=416-	=416-	=416-	=416-	=416-	=416-	=416-	=416-	=416-
4CC/	ff	4GG/)	ff	4e\ 4cc\	ff	4gg\ 4eee\	ff	4cccc\	ff
4r	.	4r	.	4r	.	4r	.	4r	.
4r	.	4r	.	4r	.	4r	.	4r	.
8D'/L	.	8D'/L	.	8D'/L	.	8d'/L	.	8d'/L	.
8C'/J	.	8C'/J	.	8C'/J	.	8c'/J	.	8c'/J	.
=417	=417	=417	=417	=417	=417	=417	=417	=417	=417
4C'/	.	4C'/	.	4C'/	.	4c'/	.	4c'/	.
8D'/L	.	8D'/L	.	8D'/L	.	8d'/L	.	8d'/L	.
8C'/J	.	8C'/J	.	8C'/J	.	8c'/J	.	8c'/J	.
4C'/	.	4C'/	.	4C'/	.	4c'/	.	4c'/	.
8D'/L	.	8D'/L	.	8D'/L	.	8d'/L	.	8d'/L	.
8C'/J	.	8C'/J	.	8C'/J	.	8c'/J	.	8c'/J	.
=418	=418	=418	=418	=418	=418	=418	=418	=418	=418
4C'/	.	4C'/	.	4C'/	.	4c'/	.	4c'/	.
8D'/L	.	8D'/L	.	8D'/L	.	8d'/L	.	8d'/L	.
8C'/J	.	8C'/J	.	8C'/J	.	8c'/J	.	8c'/J	.
4C'/	.	4C'/	.	4C'/	.	4c'/	.	4c'/	.
4C'/	.	4C'/	.	4C'/	.	4c'/	.	4c'/	.
=419	=419	=419	=419	=419	=419	=419	=419	=419	=419
[1FF	.	4C'/	.	[1F	.	[1A-	.	4c'/	.
.	.	8D'/L	.	.	.	.	.	8d'/L	.
.	.	8C'/J	.	.	.	.	.	8c'/J	.
.	.	4C'/	.	.	.	.	.	4c'/	.
.	.	8D'/L	.	.	.	.	.	8d'/L	.
.	.	8C'/J	.	.	.	.	.	8c'/J	.
=420	=420	=420	=420	=420	=420	=420	=420	=420	=420
1FF]	.	4C'/	.	1F]	.	1A-]	.	4c'/	.
.	.	8D'/L	.	.	.	.	.	8d'/L	.
.	.	8C'/J	.	.	.	.	.	8c'/J	.
.	.	4C'/	.	.	.	.	.	4c'/	.
.	.	4C'/	.	.	.	.	.	4c'/	.
=421	=421	=421	=421	=421	=421	=421	=421	=421	=421
4GG'/	.	4GG'\ 4D'\ 4B'\	.	2D'/	.	4G'/	.	2B'/	.
8AA-'/L	.	4r	.	.	.	8A-'/L	.	.	.
8GG'/J	.	.	.	.	.	8G'/J	.	.	.
4GG'/	.	4GG'\ 4E-'\ 4c'\	.	2E-'/	.	4G'/	.	2c'/	.
8AA-'/L	.	4r	.	.	.	8A-'/L	.	.	.
8GG'/J	.	.	.	.	.	8G'/J	.	.	.
=422	=422	=422	=422	=422	=422	=422	=422	=422	=422
4GG'/	.	4GG'\ 4D'\ 4c'\	.	2D'/	.	4G'/	.	2c'/	.
8AA-'/L	.	4r	.	.	.	8A-'/L	.	.	.
8GG'/J	.	.	.	.	.	8G'/J	.	.	.
4GG'/	.	4GG'\ 4D'\ 4B'\	.	2D'/	.	4G'/	.	2B'/	.
4GG'/	.	4r	.	.	.	4G'/	.	.	.
=423	=423	=423	=423	=423	=423	=423	=423	=423	=423
[1CC	.	4CC/ 4GG/ 4En/ 4c/	.	(1En	.	([1G	.	(1c	.
.	.	4r	.	.	.	.	.	.	.
.	.	2r	.	.	.	.	.	.	.
=424	=424	=424	=424	=424	=424	=424	=424	=424	=424
4CC/]	.	4r	.	(4c\)	.	4G/] (4e/)	.	(12c/L)	.
.	.	.	.	.	.	.	.	12d/	<
.	.	.	.	.	.	.	.	12e/J	.
4CC'/	.	4CC'/	.	4e\	.	4c/ 4g/	.	12f/L	.
.	.	.	.	.	.	.	.	12g/	.
.	.	.	.	.	.	.	.	12a/J	.
4CC'/	<	4CC'/	.	4g\	<	4e/ 4cc/	<	12b\L	.
.	.	.	.	.	.	.	.	12cc\	.
.	.	.	.	.	.	.	.	12dd\J	.
4CC'/	.	4CC'/	.	4cc\)	.	4g\ 4ee\)	.	16ee\LL	.
.	.	.	.	.	.	.	.	16ff\	.
.	.	.	.	.	.	.	.	16gg\	.
.	.	.	.	.	.	.	.	16aa\JJ)	.
=425	=425	=425	=425	=425	=425	=425	=425	=425	=425
16EE-q/	.	16EE-q/	.	.	.	.	.	.	.
[1DD-T	fff	[1DD-T	fff	[1ff	fff	[1b [1gg	fff	[1bb	fff
=426	=426	=426	=426	=426	=426	=426	=426	=426	=426
1DD-]	>	1DD-]	.	1ff]	>	1b] 1gg]	>	1bb]	>
(32CCQ/LLL	.	(32CCQ/LLL	.	.	.	.	.	.	.
32DD-Q/JJJ)	.	32DD-Q/JJJ)	.	.	.	.	.	.	.
=427	=427	=427	=427	=427	=427	=427	=427	=427	=427
4CC'/	.	4CC'/	.	4ee'\	.	4cc'\ 4gg'\	.	4ccc'\	.
4r	.	4r	.	4r	.	4r	.	4r	.
2r	.	2r	.	2r	.	2r	.	2r	.
=428	=428	=428	=428	=428	=428	=428	=428	=428	=428
4CC'/	.	4CC'/	.	4C'/ 4c'/	.	4c'/	.	4c'/	.
4r	.	4r	.	4r	.	4r	.	4r	.
2r	.	2r	.	2r	.	2r	.	2r	.
=429	=429	=429	=429	=429	=429	=429	=429	=429	=429
16DD-q/	.	16DD-q/	.	16D-q/	.	16d-q/	.	16d-q/	.
1CC;	>	1CC;	>	1C;	>	1c;	>	1c;	>
==	==	==	==	==	==	==	==	==	==
*-	*-	*-	*-	*-	*-	*-	*-	*-	*-
!!!hum2abc: -q --spacing 1.2 -s 0.7 -p "%%staves [1 2 3 4 5]"
